local/share/icons/dracula-icons-main/22/actions/stock_xfburn.svg

<svg xmlns="http://www.w3.org/2000/svg" width="22" height="22" version="1.1" viewBox="0 0 22 22">
 <defs>
  <style id="current-color-scheme" type="text/css">
   .ColorScheme-Text { color:#FFFFFF; } .ColorScheme-Highlight { color:#5294e2; }
  </style>
 </defs>
 <path style="fill:currentColor" class="ColorScheme-Text" d="m 11,3 a 8,8 0 0 0 -8,8 8,8 0 0 0 8,8 8,8 0 0 0 8,-8 8,8 0 0 0 -8,-8 z m 1.544922,1.9101559 c 0,5.7268001 4.390984,6.5536071 3.271484,9.8164061 C 15.178206,16.586662 13.619203,18 10.908203,18 c -0.0086,0 -0.01729,4e-5 -0.02539,0 1.342,-0.0075 2.116214,-0.709746 2.433594,-1.634766 0.5598,-1.6314 -1.636718,-2.046656 -1.636718,-4.910156 -2.0453,0.8181 -3.271485,2.736297 -3.271485,4.091797 0,1.171625 0.821556,2.147234 1.919922,2.390625 -2.433489,-0.290552 -4.3281261,-2.333992 -4.3281261,-4.845703 0,-2.711 2.4539221,-6.5456411 6.5449221,-8.1816411 z"/>
</svg>

<?xml version="1.0" encoding="UTF-8"?>
<svg xmlns="http://www.w3.org/2000/svg" xmlns:xlink="http://www.w3.org/1999/xlink" width="22" height="22" viewBox="0 0 22 22">
<path fill-rule="nonzero" fill="rgb(100%, 100%, 100%)" fill-opacity="1" d="M 11 3 C 6.582031 3 3 6.582031 3 11 C 3 15.417969 6.582031 19 11 19 C 15.417969 19 19 15.417969 19 11 C 19 6.582031 15.417969 3 11 3 Z M 12.546875 4.910156 C 12.546875 10.636719 16.9375 11.464844 15.816406 14.726562 C 15.179688 16.585938 13.621094 18 10.90625 18 C 10.898438 18 10.890625 18 10.882812 18 C 12.226562 17.992188 13 17.289062 13.316406 16.363281 C 13.875 14.734375 11.679688 14.320312 11.679688 11.453125 C 9.632812 12.273438 8.410156 14.191406 8.410156 15.546875 C 8.410156 16.71875 9.230469 17.695312 10.328125 17.9375 C 7.894531 17.648438 6 15.601562 6 13.09375 C 6 10.378906 8.453125 6.546875 12.546875 4.910156 Z M 12.546875 4.910156 "/>
</svg>
